dist/images/icons/icon1.svg

<svg width="66" height="65" viewBox="0 0 66 65" fill="none" xmlns="http://www.w3.org/2000/svg">
<g opacity="0.1">
<rect x="0.75" y="0.75" width="64.5" height="63" rx="9.75" fill="#D9D9D9"/>
<rect x="0.75" y="0.75" width="64.5" height="63" rx="9.75" fill="url(#paint0_linear_508_177)"/>
<rect x="0.75" y="0.75" width="64.5" height="63" rx="9.75" stroke="url(#paint1_linear_508_177)" stroke-width="1.5"/>
</g>
<path d="M26.8125 31.625C25.4833 31.625 24.349 31.1552 23.4094 30.2156C22.4698 29.276 22 28.1417 22 26.8125C22 25.4833 22.4698 24.349 23.4094 23.4094C24.349 22.4698 25.4833 22 26.8125 22C28.1417 22 29.276 22.4698 30.2156 23.4094C31.1552 24.349 31.625 25.4833 31.625 26.8125C31.625 28.1417 31.1552 29.276 30.2156 30.2156C29.276 31.1552 28.1417 31.625 26.8125 31.625ZM26.8125 28.875C27.3854 28.875 27.8726 28.6743 28.2741 28.2728C28.6756 27.8713 28.8759 27.3845 28.875 26.8125C28.875 26.2396 28.6743 25.7524 28.2728 25.3509C27.8713 24.9494 27.3845 24.7491 26.8125 24.75C26.2396 24.75 25.7524 24.9508 25.3509 25.3523C24.9494 25.7538 24.7491 26.2405 24.75 26.8125C24.75 27.3854 24.9508 27.8726 25.3523 28.2741C25.7538 28.6756 26.2405 28.8759 26.8125 28.875ZM39.1875 44C37.8583 44 36.724 43.5302 35.7844 42.5906C34.8448 41.651 34.375 40.5167 34.375 39.1875C34.375 37.8583 34.8448 36.724 35.7844 35.7844C36.724 34.8448 37.8583 34.375 39.1875 34.375C40.5167 34.375 41.651 34.8448 42.5906 35.7844C43.5302 36.724 44 37.8583 44 39.1875C44 40.5167 43.5302 41.651 42.5906 42.5906C41.651 43.5302 40.5167 44 39.1875 44ZM39.1875 41.25C39.7604 41.25 40.2476 41.0493 40.6491 40.6478C41.0506 40.2463 41.2509 39.7595 41.25 39.1875C41.25 38.6146 41.0493 38.1274 40.6478 37.7259C40.2463 37.3244 39.7595 37.1241 39.1875 37.125C38.6146 37.125 38.1274 37.3257 37.7259 37.7272C37.3244 38.1287 37.1241 38.6155 37.125 39.1875C37.125 39.7604 37.3257 40.2476 37.7272 40.6491C38.1287 41.0506 38.6155 41.2509 39.1875 41.25ZM24.8875 43.0375C24.3559 43.5691 23.4941 43.5691 22.9625 43.0375V43.0375C22.4309 42.5059 22.4309 41.6441 22.9625 41.1125L41.1125 22.9625C41.6441 22.4309 42.5059 22.4309 43.0375 22.9625V22.9625C43.5691 23.4941 43.5691 24.3559 43.0375 24.8875L24.8875 43.0375Z" fill="#BAE9F1"/>
<defs>
<linearGradient id="paint0_linear_508_177" x1="33" y1="0" x2="52.1042" y2="87.4143" gradientUnits="userSpaceOnUse">
<stop stop-color="#2C4262"/>
<stop offset="1" stop-color="#202F45"/>
</linearGradient>
<linearGradient id="paint1_linear_508_177" x1="33" y1="0" x2="33" y2="64.5" gradientUnits="userSpaceOnUse">
<stop stop-color="white"/>
<stop offset="1" stop-color="white" stop-opacity="0"/>
</linearGradient>
</defs>
</svg>

<svg width="66" height="65" fill="none" xmlns="http://www.w3.org/2000/svg"><g opacity=".1"><rect x=".75" y=".75" width="64.5" height="63" rx="9.75" fill="#D9D9D9"/><rect x=".75" y=".75" width="64.5" height="63" rx="9.75" fill="url(#paint0_linear_508_177)"/><rect x=".75" y=".75" width="64.5" height="63" rx="9.75" stroke="url(#paint1_linear_508_177)" stroke-width="1.5"/></g><path d="M26.813 31.625c-1.33 0-2.464-.47-3.404-1.41-.94-.939-1.409-2.073-1.409-3.402 0-1.33.47-2.464 1.41-3.404.939-.94 2.073-1.409 3.402-1.409 1.33 0 2.464.47 3.404 1.41.94.939 1.409 2.073 1.409 3.402 0 1.33-.47 2.464-1.41 3.404-.939.94-2.073 1.409-3.402 1.409zm0-2.75c.572 0 1.06-.2 1.461-.602.402-.402.602-.889.601-1.46 0-.573-.2-1.06-.602-1.462a1.984 1.984 0 00-1.46-.601c-.573 0-1.06.2-1.462.602a1.984 1.984 0 00-.601 1.46c0 .573.2 1.06.602 1.462.402.402.889.602 1.46.601zM39.188 44c-1.33 0-2.464-.47-3.404-1.41-.94-.939-1.409-2.073-1.409-3.403 0-1.329.47-2.463 1.41-3.403.939-.94 2.073-1.409 3.403-1.409 1.329 0 2.463.47 3.403 1.41.94.939 1.409 2.073 1.409 3.403 0 1.329-.47 2.463-1.41 3.403-.939.94-2.073 1.409-3.403 1.409zm0-2.75c.572 0 1.06-.2 1.461-.602.402-.402.602-.889.601-1.46 0-.573-.2-1.06-.602-1.462a1.984 1.984 0 00-1.46-.601c-.573 0-1.06.2-1.462.602a1.984 1.984 0 00-.601 1.46c0 .573.2 1.06.602 1.462.402.402.889.602 1.46.601zm-14.3 1.788a1.361 1.361 0 11-1.925-1.925l18.15-18.15a1.361 1.361 0 111.925 1.925l-18.15 18.15z" fill="#BAE9F1"/><defs><linearGradient id="paint0_linear_508_177" x1="33" y1="0" x2="52.104" y2="87.414" gradientUnits="userSpaceOnUse"><stop stop-color="#2C4262"/><stop offset="1" stop-color="#202F45"/></linearGradient><linearGradient id="paint1_linear_508_177" x1="33" y1="0" x2="33" y2="64.5" gradientUnits="userSpaceOnUse"><stop stop-color="#fff"/><stop offset="1" stop-color="#fff" stop-opacity="0"/></linearGradient></defs></svg>
